X:1
T: Lament for Niel Gow
C:Hugh Gilmore
R:Strathspey
Q: 128
K:Gm
M:4/4
L:1/16
|:D2|B4 A3G G2^F2 G2AB|c3d c2B2 B2A2 G2F2|B3A B2c2 d3=e f2B2|A3c BAGF F6 D2|
B4 A3G G2^F2 G2AB|c3d c2B2 B2A2 G2F2|B3c d2=e2 f3g f2B2|A3c BAG^F G4 d2e^f|
g3a g2f2 e2d2 c2B2|c3d c2B2 B2A2 G2F2|B3A B2c2 d2c2 d2^f2|g2ab bag^f g6 ga|
b2g2 a2^f2 g2ab d2B2|c3d c2B2 B2A2 G2F2|B3c d2=e2 f3g f2B2|A3c BAG^F G6:|
